X:1
T:The Moving On Song
M:4/4
L:1/4
K:C
 E E/2E/2 E/2D/2 C/2D/2| E/2A,/2 A,2 B,/2C/2| D D D/2C/2 A,/2C/2|
M:2/4
 D E| A,4-|
M:2/4
 A, E|
M:4/4
 E A A A| B A A z/2 A/2| ^F D E C| D D B,3/2 C/2| B,/2B,/2 A, G, A,|\
 B, D E2| A,/2A,/2 E D/2D/2 E| A,/2A,/2 E D/2D/2 E| C2 B,2| A,4|
